assets/stickers/emoticons/stickers/imgly_sticker_emoticons_idea.svg

<svg height="62" viewBox="0 0 64 62" width="64" xmlns="http://www.w3.org/2000/svg"><g fill="none"><g transform="translate(2 3)"><path d="m61.4 35.4c0 13-11.9 23.5-30.3 23.5s-30.4-10.5-30.4-23.5 11.9-32.5 30.4-32.5 30.3 19.5 30.3 32.5z" fill="#f7910b"/><path d="m61.4 35.4c0 13-11.9 19.5-30.3 19.5s-30.4-6.5-30.4-19.5 11.9-34.5 30.4-34.5 30.3 21.5 30.3 34.5z" fill="#f7910b"/><path d="m31.1.9c18.4 0 30.3 21.5 30.3 34.5s-11.9 19.5-30.3 19.5" fill="#f9a908"/><path d="m61.4 35.4c0 13-11.9 19.5-30.3 19.5s-30.4-6.5-30.4-19.5 11.9-32.5 30.4-32.5 30.3 19.5 30.3 32.5z" fill="#f9a908"/><path d="m.7 35.4c0-13 11.9-32.5 30.3-32.5" fill="#f9c55d"/><path d="m31.1 2.9c18.4 0 30.3 19.5 30.3 32.5s-11.9 23.5-30.3 23.5" fill="#f7910b"/><path d="m31.1 2.9c18.4 0 30.3 19.5 30.3 32.5" fill="#ea7103"/><g transform="translate(24 42)"><path d="m24.8 3.1c0 2.6-5.3 4.7-11.9 4.7s-11.9-2.1-11.9-4.7" fill="#ed7e11"/><path d="m13.1 4.4c-4.9 0-9.8-.7-12-2.1-.5-.3-.7-1-.4-1.5s1-.7 1.5-.4c3.8 2.3 18 2.3 21.8 0 .5-.3 1.2-.2 1.5.4s.2 1.2-.4 1.5c-2.2 1.4-7.1 2.1-12 2.1z" fill="#02243e"/></g><circle cx="9.4" cy="32.4" fill="#f7910b" r="1"/><circle cx="4.9" cy="34.4" fill="#f7910b" r="1.1"/><circle cx="7.9" cy="30.4" fill="#f7910b" r="1"/><circle cx="12.5" cy="32.2" fill="#f7910b" r="1"/><circle cx="57.6" cy="35.3" fill="#f9a908" r="1"/><circle cx="54.1" cy="34.1" fill="#f9a908" r="1"/><circle cx="58.3" cy="41.1" fill="#f9a908" r="1"/><circle cx="54.5" cy="44.9" fill="#f9a908" r="1.3"/><circle cx="55.5" cy="37" fill="#f9a908" r="1"/><circle cx="8.4" cy="36.4" fill="#f7910b" r="1"/><circle cx="9.1" cy="28" fill="#f7910b" r="1"/><g fill="#f9a908"><circle cx="3.9" cy="14.2" r="1.1"/><circle cx="7.1" cy="10.7" r="1"/><circle cx="58.3" cy="16.6" r="1"/><circle cx="57.5" cy="13.7" r="1"/><circle cx="60" cy="14.2" r="1"/><circle cx="5.1" cy="17.2" r="1"/></g><g transform="translate(23 29)"><circle cx="4" cy="5.3" fill="#d87703" r="3.5"/><circle cx="26.8" cy="5.3" fill="#d87703" r="3.5"/><circle cx="4" cy="4.3" fill="#1e4784" r="3.5"/><path d="m4 .8c1.9 0 3.5 1.6 3.5 3.5s-1.6 3.5-3.5 3.5" fill="#00233f"/><circle cx="26.8" cy="4.3" fill="#1e4784" r="3.5"/><path d="m26.8.8c1.9 0 3.5 1.6 3.5 3.5s-1.6 3.5-3.5 3.5" fill="#00233f"/></g><g transform="translate(18 12)"><path d="m10.8.5c-1.8.1-3.2.8-3.2 1.7l6.5-.3c0-.9-1.5-1.5-3.3-1.4z" fill="#19bca4"/><path d="m30.1.5c-1.8-.1-3.3.6-3.3 1.4l6.5.3c.1-.9-1.4-1.7-3.2-1.7z" fill="#19bca4"/><path d="m10.9 2.5c1.8-.1 3.3.3 3.3-.6l-6.5.3c0 .8 1.4.3 3.2.3z" fill="#109da0"/><path d="m30 2.5c1.8.1 3.3.6 3.3-.3l-6.5-.3c0 .9 1.4.5 3.2.6z" fill="#109da0"/><path d="m8.5 24.2c-4.3 0-7.8 1-7.8 2.2s3.5.7 7.8.7 7.8.6 7.8-.7c0-1.2-3.5-2.2-7.8-2.2z" fill="#f9c55d"/><path d="m32.4 24.2c-4.3 0-7.8 1-7.8 2.2s3.5.7 7.8.7 7.8.6 7.8-.7c0-1.2-3.4-2.2-7.8-2.2z" fill="#f9a908"/></g></g><g transform="translate(4 6)"><path d="m26.3 11.4c0-6-5.8-10.8-12.9-10.8s-12.9 4.8-12.9 10.8c0 1.6.4 3.1 1.1 4.5l5.4 7.1v3.1c0 3 2.9 5.4 6.5 5.4s6.5-2.4 6.5-5.4v-3.1l5.2-7.1c.7-1.4 1.1-2.9 1.1-4.5z" fill="#fff"/><path d="m13.5 31.5c3.6 0 6.5-2.4 6.5-5.4v-3.1l5.2-7.1c.7-1.4 1.1-2.9 1.1-4.5 0-6-5.8-10.8-12.9-10.8" fill="#f9f3dc"/><path d="m8.9 29.3v4.3c0 .9.7 1.7 1.7 1.7h5.8c.9 0 1.7-.7 1.7-1.7v-4.3z" fill="#6d6db2"/><path d="m16.4 35.3c.9 0 1.7-.7 1.7-1.7v-4.3h-9.1" fill="#4c4c8c"/><g fill="#7777bf"><path d="m17.9 30.8c0 .2-.1.3-.3.3h-8.3c-.2 0-.3-.1-.3-.3 0-.2.1-.3.3-.3h8.3c.2-.1.3.1.3.3z"/><path d="m17.9 32.3c0 .2-.1.3-.3.3h-8.3c-.2 0-.3-.1-.3-.3 0-.2.1-.3.3-.3h8.3c.2 0 .3.2.3.3z"/><path d="m17.9 33.9c0 .2-.1.3-.3.3h-8.3c-.2 0-.3-.1-.3-.3 0-.2.1-.3.3-.3h8.3c.2 0 .3.1.3.3z"/></g></g><g fill="#f9c55d"><circle cx="12.7" cy="20.1" r="1.2"/><circle cx="17.5" cy="20.1" r="1.2"/><circle cx="22.3" cy="20.1" r="1.2"/></g><g fill="#fff"><path d="m18.5 3c0 .6-.5 1-1 1-.6 0-1-.5-1-1v-1.9c0-.6.5-1 1-1 .6 0 1 .5 1 1z"/><g><path d="m7.7 5.8c.4.4.4 1.1 0 1.5-.4.4-1.1.4-1.5 0l-1.3-1.4c-.4-.4-.4-1.1 0-1.5.4-.4 1.1-.4 1.5 0z"/><path d="m3.8 10.2c.5.2.8.8.6 1.3-.2.5-.8.8-1.3.6l-1.8-.6c-.5-.2-.8-.8-.6-1.3.2-.5.8-.8 1.3-.6z"/><path d="m13.1 3.3c.2.5 0 1.1-.6 1.3-.5.2-1.1 0-1.3-.6l-.7-1.8c-.2-.5 0-1.1.6-1.3.5-.2 1.1 0 1.3.6z"/><g transform="translate(21)"><path d="m6.3 5.8c-.4.4-.4 1.1 0 1.5.4.4 1.1.4 1.5 0l1.4-1.4c.4-.4.4-1.1 0-1.5-.4-.4-1.1-.4-1.5 0z"/><path d="m10.2 10.2c-.5.2-.8.8-.6 1.3.2.5.8.8 1.3.6l1.8-.6c.5-.2.8-.8.6-1.3-.2-.5-.8-.8-1.3-.6z"/><path d="m.8 3.3c-.2.5 0 1.1.6 1.3.5.2 1.1 0 1.3-.6l.7-1.8c.2-.5 0-1.1-.6-1.3-.5-.2-1.1 0-1.3.6z"/></g></g></g></g></svg>

<?xml version="1.0" encoding="UTF-8"?>
<svg width="64px" height="62px" viewBox="0 0 64 62" version="1.1" xmlns="http://www.w3.org/2000/svg" xmlns:xlink="http://www.w3.org/1999/xlink">
    <!-- Generator: Sketch 43.1 (39012) - http://www.bohemiancoding.com/sketch -->
    <title>imgly_sticker_emoticons_idea</title>
    <desc>Created with Sketch.</desc>
    <defs></defs>
    <g id="Page-1" stroke="none" stroke-width="1" fill="none" fill-rule="evenodd">
        <g id="idea" fill-rule="nonzero">
            <g id="Group" transform="translate(2.000000, 3.000000)">
                <path d="M61.4,35.4 C61.4,48.4 49.5,58.9 31.1,58.9 C12.7,58.9 0.7,48.4 0.7,35.4 C0.7,22.4 12.6,2.9 31.1,2.9 C49.6,2.9 61.4,22.4 61.4,35.4 Z" id="Shape" fill="#F7910B"></path>
                <path d="M61.4,35.4 C61.4,48.4 49.5,54.9 31.1,54.9 C12.7,54.9 0.7,48.4 0.7,35.4 C0.7,22.4 12.6,0.9 31.1,0.9 C49.6,0.9 61.4,22.4 61.4,35.4 Z" id="Shape" fill="#F7910B"></path>
                <path d="M31.1,0.9 C49.5,0.9 61.4,22.4 61.4,35.4 C61.4,48.4 49.5,54.9 31.1,54.9" id="Shape" fill="#F9A908"></path>
                <path d="M61.4,35.4 C61.4,48.4 49.5,54.9 31.1,54.9 C12.7,54.9 0.7,48.4 0.7,35.4 C0.7,22.4 12.6,2.9 31.1,2.9 C49.6,2.9 61.4,22.4 61.4,35.4 Z" id="Shape" fill="#F9A908"></path>
                <path d="M0.7,35.4 C0.7,22.4 12.6,2.9 31,2.9" id="Shape" fill="#F9C55D"></path>
                <path d="M31.1,2.9 C49.5,2.9 61.4,22.4 61.4,35.4 C61.4,48.4 49.5,58.9 31.1,58.9" id="Shape" fill="#F7910B"></path>
                <path d="M31.1,2.9 C49.5,2.9 61.4,22.4 61.4,35.4" id="Shape" fill="#EA7103"></path>
                <g transform="translate(24.000000, 42.000000)" id="Shape">
                    <path d="M24.8,3.1 C24.8,5.7 19.5,7.8 12.9,7.8 C6.3,7.8 1,5.7 1,3.1" fill="#ED7E11"></path>
                    <path d="M13.1,4.4 C8.2,4.4 3.3,3.7 1.1,2.3 C0.6,2 0.4,1.3 0.7,0.8 C1,0.3 1.7,0.1 2.2,0.4 C6,2.7 20.2,2.7 24,0.4 C24.5,0.1 25.2,0.2 25.5,0.8 C25.8,1.4 25.7,2 25.1,2.3 C22.9,3.7 18,4.4 13.1,4.4 Z" fill="#02243E"></path>
                </g>
                <circle id="Oval" fill="#F7910B" cx="9.4" cy="32.4" r="1"></circle>
                <circle id="Oval" fill="#F7910B" cx="4.9" cy="34.4" r="1.1"></circle>
                <circle id="Oval" fill="#F7910B" cx="7.9" cy="30.4" r="1"></circle>
                <circle id="Oval" fill="#F7910B" cx="12.5" cy="32.2" r="1"></circle>
                <circle id="Oval" fill="#F9A908" cx="57.6" cy="35.3" r="1"></circle>
                <circle id="Oval" fill="#F9A908" cx="54.1" cy="34.1" r="1"></circle>
                <circle id="Oval" fill="#F9A908" cx="58.3" cy="41.1" r="1"></circle>
                <circle id="Oval" fill="#F9A908" cx="54.5" cy="44.9" r="1.3"></circle>
                <circle id="Oval" fill="#F9A908" cx="55.5" cy="37" r="1"></circle>
                <circle id="Oval" fill="#F7910B" cx="8.4" cy="36.4" r="1"></circle>
                <circle id="Oval" fill="#F7910B" cx="9.1" cy="28" r="1"></circle>
                <circle id="Oval" fill="#F9A908" cx="3.9" cy="14.2" r="1.1"></circle>
                <circle id="Oval" fill="#F9A908" cx="7.1" cy="10.7" r="1"></circle>
                <circle id="Oval" fill="#F9A908" cx="58.3" cy="16.6" r="1"></circle>
                <circle id="Oval" fill="#F9A908" cx="57.5" cy="13.7" r="1"></circle>
                <circle id="Oval" fill="#F9A908" cx="60" cy="14.2" r="1"></circle>
                <circle id="Oval" fill="#F9A908" cx="5.1" cy="17.2" r="1"></circle>
                <g transform="translate(23.000000, 29.000000)">
                    <circle id="Oval" fill="#D87703" cx="4" cy="5.3" r="3.5"></circle>
                    <circle id="Oval" fill="#D87703" cx="26.8" cy="5.3" r="3.5"></circle>
                    <circle id="Oval" fill="#1E4784" cx="4" cy="4.3" r="3.5"></circle>
                    <path d="M4,0.8 C5.9,0.8 7.5,2.4 7.5,4.3 C7.5,6.2 5.9,7.8 4,7.8" id="Shape" fill="#00233F"></path>
                    <circle id="Oval" fill="#1E4784" cx="26.8" cy="4.3" r="3.5"></circle>
                    <path d="M26.8,0.8 C28.7,0.8 30.3,2.4 30.3,4.3 C30.3,6.2 28.7,7.8 26.8,7.8" id="Shape" fill="#00233F"></path>
                </g>
                <g transform="translate(18.000000, 12.000000)" id="Shape">
                    <path d="M10.8,0.5 C9,0.6 7.6,1.3 7.6,2.2 L14.1,1.9 C14.1,1 12.6,0.4 10.8,0.5 Z" fill="#19BCA4"></path>
                    <path d="M30.1,0.5 C28.3,0.4 26.8,1.1 26.8,1.9 L33.3,2.2 C33.4,1.3 31.9,0.5 30.1,0.5 Z" fill="#19BCA4"></path>
                    <path d="M10.9,2.5 C12.7,2.4 14.2,2.8 14.2,1.9 L7.7,2.2 C7.7,3 9.1,2.5 10.9,2.5 Z" fill="#109DA0"></path>
                    <path d="M30,2.5 C31.8,2.6 33.3,3.1 33.3,2.2 L26.8,1.9 C26.8,2.8 28.2,2.4 30,2.5 Z" fill="#109DA0"></path>
                    <path d="M8.5,24.2 C4.2,24.2 0.7,25.2 0.7,26.4 C0.7,27.6 4.2,27.1 8.5,27.1 C12.8,27.1 16.3,27.7 16.3,26.4 C16.3,25.2 12.8,24.2 8.5,24.2 Z" fill="#F9C55D"></path>
                    <path d="M32.4,24.2 C28.1,24.2 24.6,25.2 24.6,26.4 C24.6,27.6 28.1,27.1 32.4,27.1 C36.7,27.1 40.2,27.7 40.2,26.4 C40.2,25.2 36.8,24.2 32.4,24.2 Z" fill="#F9A908"></path>
                </g>
            </g>
            <g id="Group">
                <g transform="translate(4.000000, 6.000000)" id="Shape">
                    <g>
                        <path d="M26.3,11.4 C26.3,5.4 20.5,0.6 13.4,0.6 C6.3,0.6 0.5,5.4 0.5,11.4 C0.5,13 0.9,14.5 1.6,15.9 L1.6,15.9 L7,23 L7,23 L7,26.1 C7,29.1 9.9,31.5 13.5,31.5 C17.1,31.5 20,29.1 20,26.1 L20,23 L20,23 L25.2,15.9 L25.2,15.9 C25.9,14.5 26.3,13 26.3,11.4 Z" fill="#FFFFFF"></path>
                        <path d="M13.5,31.5 C17.1,31.5 20,29.1 20,26.1 L20,23 L20,23 L25.2,15.9 L25.2,15.9 C25.9,14.5 26.3,13 26.3,11.4 C26.3,5.4 20.5,0.6 13.4,0.6" fill="#F9F3DC"></path>
                        <path d="M8.9,29.3 L8.9,33.6 C8.9,34.5 9.6,35.3 10.6,35.3 L16.4,35.3 C17.3,35.3 18.1,34.6 18.1,33.6 L18.1,29.3 L8.9,29.3 Z" fill="#6D6DB2"></path>
                        <path d="M16.4,35.3 C17.3,35.3 18.1,34.6 18.1,33.6 L18.1,29.3 L9,29.3" fill="#4C4C8C"></path>
                    </g>
                    <path d="M17.9,30.8 C17.9,31 17.8,31.1 17.6,31.1 L9.3,31.1 C9.1,31.1 9,31 9,30.8 L9,30.8 C9,30.6 9.1,30.5 9.3,30.5 L17.6,30.5 C17.8,30.4 17.9,30.6 17.9,30.8 L17.9,30.8 Z" fill="#7777BF"></path>
                    <path d="M17.9,32.3 C17.9,32.5 17.8,32.6 17.6,32.6 L9.3,32.6 C9.1,32.6 9,32.5 9,32.3 L9,32.3 C9,32.1 9.1,32 9.3,32 L17.6,32 C17.8,32 17.9,32.2 17.9,32.3 L17.9,32.3 Z" fill="#7777BF"></path>
                    <path d="M17.9,33.9 C17.9,34.1 17.8,34.2 17.6,34.2 L9.3,34.2 C9.1,34.2 9,34.1 9,33.9 L9,33.9 C9,33.7 9.1,33.6 9.3,33.6 L17.6,33.6 C17.8,33.6 17.9,33.7 17.9,33.9 L17.9,33.9 Z" fill="#7777BF"></path>
                </g>
                <g transform="translate(11.000000, 18.000000)" id="Oval" fill="#F9C55D">
                    <circle cx="1.7" cy="2.1" r="1.2"></circle>
                    <circle cx="6.5" cy="2.1" r="1.2"></circle>
                    <circle cx="11.3" cy="2.1" r="1.2"></circle>
                </g>
                <path d="M18.5,3 C18.5,3.6 18,4 17.5,4 L17.5,4 C16.9,4 16.5,3.5 16.5,3 L16.5,1.1 C16.5,0.5 17,0.1 17.5,0.1 L17.5,0.1 C18.1,0.1 18.5,0.6 18.5,1.1 L18.5,3 Z" id="Shape" fill="#FFFFFF"></path>
                <g id="Shape" fill="#FFFFFF">
                    <g>
                        <path d="M7.7,5.8 C8.1,6.2 8.1,6.9 7.7,7.3 L7.7,7.3 C7.3,7.7 6.6,7.7 6.2,7.3 L4.9,5.9 C4.5,5.5 4.5,4.8 4.9,4.4 L4.9,4.4 C5.3,4 6,4 6.4,4.4 L7.7,5.8 Z"></path>
                        <path d="M3.8,10.2 C4.3,10.4 4.6,11 4.4,11.5 L4.4,11.5 C4.2,12 3.6,12.3 3.1,12.1 L1.3,11.5 C0.8,11.3 0.5,10.7 0.7,10.2 L0.7,10.2 C0.9,9.7 1.5,9.4 2,9.6 L3.8,10.2 Z"></path>
                        <path d="M13.1,3.3 C13.3,3.8 13.1,4.4 12.5,4.6 L12.5,4.6 C12,4.8 11.4,4.6 11.2,4 L10.5,2.2 C10.3,1.7 10.5,1.1 11.1,0.9 L11.1,0.9 C11.6,0.7 12.2,0.9 12.4,1.5 L13.1,3.3 Z"></path>
                    </g>
                    <g transform="translate(21.000000, 0.000000)">
                        <path d="M6.3,5.8 C5.9,6.2 5.9,6.9 6.3,7.3 L6.3,7.3 C6.7,7.7 7.4,7.7 7.8,7.3 L9.2,5.9 C9.6,5.5 9.6,4.8 9.2,4.4 L9.2,4.4 C8.8,4 8.1,4 7.7,4.4 L6.3,5.8 Z"></path>
                        <path d="M10.2,10.2 C9.7,10.4 9.4,11 9.6,11.5 L9.6,11.5 C9.8,12 10.4,12.3 10.9,12.1 L12.7,11.5 C13.2,11.3 13.5,10.7 13.3,10.2 L13.3,10.2 C13.1,9.7 12.5,9.4 12,9.6 L10.2,10.2 Z"></path>
                        <path d="M0.8,3.3 C0.6,3.8 0.8,4.4 1.4,4.6 L1.4,4.6 C1.9,4.8 2.5,4.6 2.7,4 L3.4,2.2 C3.6,1.7 3.4,1.1 2.8,0.9 L2.8,0.9 C2.3,0.7 1.7,0.9 1.5,1.5 L0.8,3.3 Z"></path>
                    </g>
                </g>
            </g>
        </g>
    </g>
</svg>
